X: 736
T: Junmin hezuo
%%abc-version 2.0
%%abcx-abcm2ps-target-version 5.9.1 (29 Sep 2008)
%%abc-creator hum2abc beta
%%abcx-conversion-date 2013/10/02 07:52:30
%%abc-edited-by Helmut Schaffrath
%%humdrum-veritas 3060273319
%%humdrum-veritas-data 3518717687
%%continueall 1
%%barnumbers 0
L: 1/8
M: 2/4
K: F
c c A c [I:setbarnb 1]| 
f f d f | 
d c B c | 
G4 | 
G2D F | 
G2A c | 
G4 | 
f2d f | 
d c B c | 
G2G D | 
C4 | 
G GC2 | 
G GC2 | 
c f d c | 
c dF2 | 
G2F D | 
C2D F | 
C4 |]  



